X:4407
L:1/8
Q:1/4=120
M:4/4
K:Ador
"^Allegro" B | A>GE>B e2 e>B | d2 B>G A>cB>A | G>FE>B e>fg>e | d>BA>G A2 B :: A | G>FE>F G>AB>G | 
 A>Bc>A d>cB>A | G>FE>F G>AB>G | c>AB>G A2 B :|

